src/front_assets/svg/apple-store.svg

<svg xmlns="http://www.w3.org/2000/svg" width="104" height="30" viewbox="0 0 104 30" fill="none">
											<g clip-path="url(#clip0_2441_3689)">
												<path d="M99.755 0.379395H4.21748C2.28249 0.379395 0.713867 1.927 0.713867 3.83607V26.1686C0.713867 28.0777 2.28249 29.6253 4.21748 29.6253H99.755C101.69 29.6253 103.259 28.0777 103.259 26.1686V3.83607C103.259 1.927 101.69 0.379395 99.755 0.379395Z" fill="black"></path>
												<path d="M99.7547 30H4.21719C2.07135 30 0.329041 28.281 0.329041 26.1639V3.83607C0.329041 1.71897 2.07135 0 4.21719 0H99.7547C101.901 0 103.643 1.71897 103.643 3.83607V26.1639C103.643 28.281 101.901 30 99.7547 30ZM4.21719 0.758782C2.49387 0.758782 1.09813 2.13583 1.09813 3.83607V26.1639C1.09813 27.8595 2.49862 29.2412 4.21719 29.2412H99.7547C101.473 29.2412 102.874 27.8595 102.874 26.1639V3.83607C102.874 2.13583 101.473 0.758782 99.7547 0.758782H4.21719Z" fill="#A7A9AC"></path>
												<path d="M34.7244 8.52905L34.2924 9.92484H33.3524L34.9523 4.99744H36.1154L37.7391 9.92484H36.7611L36.3101 8.52905H34.7244ZM36.1534 7.8499L35.7594 6.63678C35.6644 6.33701 35.5837 5.99978 35.5078 5.71406H35.4935C35.4176 5.99978 35.3463 6.3417 35.2561 6.63678L34.8716 7.8499H36.1534Z" fill="white"></path>
												<path d="M39.1019 6.36511L39.6858 8.17307C39.7902 8.48689 39.8615 8.77261 39.9327 9.063H39.9564C40.0229 8.77261 40.1036 8.49158 40.2033 8.17307L40.7825 6.36511H41.7367L40.3599 9.92483H39.4627L38.1191 6.36511H39.1066H39.1019Z" fill="white"></path>
												<path d="M45.3683 9.07273C45.3683 9.39591 45.3825 9.70973 45.4252 9.92987H44.6039L44.5375 9.53643H44.5137C44.3001 9.81278 43.9203 10.0095 43.4456 10.0095C42.7192 10.0095 42.3109 9.48959 42.3109 8.95095C42.3109 8.06102 43.118 7.59732 44.452 7.60669V7.55048C44.452 7.31629 44.3571 6.92753 43.7162 6.92753C43.3601 6.92753 42.9898 7.03526 42.7477 7.18982L42.572 6.60434C42.8379 6.44509 43.3079 6.29053 43.8776 6.29053C45.0359 6.29053 45.3683 7.01652 45.3683 7.79872V9.07741V9.07273ZM44.4805 8.18748C43.8348 8.17811 43.2224 8.31395 43.2224 8.85259C43.2224 9.20388 43.4503 9.36313 43.7399 9.36313C44.1102 9.36313 44.3713 9.12893 44.4568 8.87132C44.4805 8.80575 44.4805 8.74018 44.4805 8.6746V8.1828V8.18748Z" fill="white"></path>
												<path d="M47.1108 5.85473C46.8069 5.85473 46.6075 5.63459 46.6075 5.3723C46.6075 5.09595 46.8164 4.88049 47.1203 4.88049C47.4241 4.88049 47.6235 5.09127 47.633 5.3723C47.633 5.63459 47.4336 5.85473 47.1203 5.85473H47.1108ZM46.6598 9.92499V6.36527H47.5713V9.92499H46.6598Z" fill="white"></path>
												<path d="M48.8813 4.73047H49.7928V9.92953H48.8813V4.73047Z" fill="white"></path>
												<path d="M53.9137 9.07273C53.9137 9.39591 53.9279 9.70973 53.9706 9.92987H53.1493L53.0829 9.53643H53.0591C52.8455 9.81278 52.4657 10.0095 51.991 10.0095C51.2646 10.0095 50.8563 9.48959 50.8563 8.95095C50.8563 8.06102 51.6634 7.59732 52.9974 7.60669V7.55048C52.9974 7.31629 52.9025 6.92753 52.2663 6.92753C51.9103 6.92753 51.54 7.03526 51.2978 7.18982L51.1222 6.60434C51.388 6.44509 51.858 6.29053 52.4277 6.29053C53.5814 6.29053 53.9184 7.01652 53.9184 7.79872V9.07741L53.9137 9.07273ZM53.0259 8.18748C52.3803 8.17811 51.7678 8.31395 51.7678 8.85259C51.7678 9.20388 51.9957 9.36313 52.2853 9.36313C52.6556 9.36313 52.9167 9.12893 53.0022 8.87132C53.0259 8.80575 53.0259 8.74018 53.0259 8.6746V8.1828V8.18748Z" fill="white"></path>
												<path d="M55.2004 4.73047H56.1119V6.85693H56.1262C56.3493 6.51501 56.7433 6.2855 57.2845 6.2855C58.1676 6.2855 58.7942 7.0115 58.7895 8.09347C58.7895 9.37215 57.9682 10.0092 57.1516 10.0092C56.6864 10.0092 56.2686 9.83117 56.0122 9.39557H55.998L55.9552 9.92953H55.1767C55.1909 9.68597 55.2051 9.29253 55.2051 8.93656V4.73047H55.2004ZM56.1119 8.45881C56.1119 8.53375 56.1214 8.604 56.1357 8.66958C56.2306 9.03492 56.5487 9.29721 56.9427 9.29721C57.5124 9.29721 57.8637 8.85225 57.8637 8.12625C57.8637 7.49862 57.5599 6.98808 56.9522 6.98808C56.5819 6.98808 56.2401 7.25037 56.1451 7.64382C56.1309 7.70939 56.1167 7.78902 56.1167 7.87801V8.45412L56.1119 8.45881Z" fill="white"></path>
												<path d="M59.8618 4.73047H60.7733V9.92953H59.8618V4.73047Z" fill="white"></path>
												<path d="M62.7345 8.39793C62.7583 9.03962 63.2662 9.32065 63.8454 9.32065C64.2679 9.32065 64.5623 9.25508 64.8471 9.1614L64.9801 9.77498C64.6667 9.90613 64.2395 9.99981 63.722 9.99981C62.5494 9.99981 61.861 9.29255 61.861 8.20121C61.861 7.21292 62.4687 6.28552 63.627 6.28552C64.7854 6.28552 65.1842 7.23634 65.1842 8.01854C65.1842 8.18716 65.17 8.31831 65.1557 8.39793H62.7393H62.7345ZM64.3202 7.7703C64.3297 7.44243 64.1777 6.89911 63.5701 6.89911C63.0051 6.89911 62.7678 7.40496 62.7345 7.7703H64.3202Z" fill="white"></path>
												<path d="M69.6797 10.0092C68.6638 10.0092 67.871 9.32065 67.871 8.17311C67.871 7.02557 68.6495 6.28552 69.7367 6.28552C70.8239 6.28552 71.5312 7.03025 71.5312 8.11222C71.5312 9.41901 70.596 10.0045 69.6845 10.0045H69.675L69.6797 10.0092ZM69.7082 9.35812C70.2257 9.35812 70.5913 8.86164 70.5913 8.13564C70.5913 7.57826 70.3396 6.93658 69.7177 6.93658C69.0958 6.93658 68.811 7.55953 68.811 8.14969C68.811 8.83822 69.1575 9.35812 69.6987 9.35812H69.7082Z" fill="white"></path>
												<path d="M72.6042 7.4287C72.6042 7.02121 72.5899 6.6746 72.5757 6.37015H73.3685L73.4112 6.90411H73.435C73.5964 6.62776 73.9904 6.29053 74.5933 6.29053C75.1963 6.29053 75.8752 6.69334 75.8752 7.81746V9.92987H74.9637V7.9205C74.9637 7.40997 74.769 7.02121 74.2753 7.02121C73.9145 7.02121 73.6628 7.27882 73.5632 7.5458C73.5347 7.62074 73.5204 7.72847 73.5204 7.83151V9.92987H72.6089V7.4287H72.6042Z" fill="white"></path>
												<path d="M80.0718 5.45195V6.3653H80.9406V7.03977H80.0718V8.60417C80.0718 9.04446 80.1905 9.25991 80.5371 9.25991C80.6985 9.25991 80.7887 9.25054 80.8931 9.22244L80.9074 9.9016C80.7744 9.95312 80.5276 9.99527 80.2475 9.99527C79.9057 9.99527 79.6351 9.88755 79.4642 9.70488C79.2648 9.49879 79.1746 9.17092 79.1746 8.70253V7.03509H78.6618V6.36061H79.1746V5.69551L80.0718 5.44727V5.45195Z" fill="white"></path>
												<path d="M81.952 4.73047H82.8635V6.85225H82.8777C82.9869 6.68363 83.1436 6.54312 83.3287 6.44944C83.5139 6.34639 83.7275 6.29019 83.9602 6.29019C84.5726 6.29019 85.2182 6.693 85.2182 7.83117V9.92953H84.3067V7.92485C84.3067 7.41431 84.1121 7.01618 83.6088 7.01618C83.2528 7.01618 83.0012 7.25037 82.8967 7.52204C82.8682 7.60166 82.8587 7.70002 82.8587 7.7937V9.92953H81.9472V4.73047H81.952Z" fill="white"></path>
												<path d="M87.1602 8.39793C87.184 9.03962 87.692 9.32065 88.2711 9.32065C88.6937 9.32065 88.988 9.25508 89.2729 9.1614L89.4058 9.77498C89.0925 9.90613 88.6652 9.99981 88.1477 9.99981C86.9751 9.99981 86.2867 9.29255 86.2867 8.20121C86.2867 7.21292 86.8944 6.28552 88.0528 6.28552C89.2111 6.28552 89.6099 7.23634 89.6099 8.01854C89.6099 8.18716 89.5957 8.31831 89.5814 8.39793H87.165H87.1602ZM88.7459 7.7703C88.7554 7.44243 88.6035 6.89911 87.9958 6.89911C87.4308 6.89911 87.1935 7.40496 87.1602 7.7703H88.7459Z" fill="white"></path>
												<path d="M23.3877 14.7072C23.3639 12.2669 25.4101 11.0819 25.505 11.0257C24.3467 9.35821 22.5474 9.1287 21.916 9.10997C20.4063 8.9554 18.9441 9.9999 18.175 9.9999C17.4059 9.9999 16.2048 9.12402 14.9325 9.14744C13.2899 9.17554 11.7565 10.1123 10.9114 11.5643C9.17384 14.5339 10.4699 18.8945 12.1362 21.2973C12.9718 22.473 13.945 23.7844 15.2173 23.7376C16.4612 23.6861 16.9264 22.9554 18.4314 22.9554C19.9363 22.9554 20.3588 23.7376 21.6596 23.7095C22.9984 23.6861 23.8387 22.5292 24.641 21.3442C25.6047 19.9952 25.9893 18.6697 26.0083 18.6041C25.975 18.5947 23.4114 17.6299 23.3829 14.7025" fill="white"></path>
												<path d="M20.9284 7.5362C21.5978 6.70716 22.0583 5.58304 21.9301 4.44019C20.9617 4.48234 19.7463 5.10061 19.0485 5.91091C18.4313 6.62286 17.8758 7.79382 18.0183 8.88983C19.1102 8.96946 20.2258 8.34651 20.9284 7.53152" fill="white"></path>
												<path d="M41.3992 23.5505H39.6616L38.7121 20.5996H35.4079L34.5012 23.5505H32.8111L36.0868 13.5083H38.1092L41.3992 23.5505ZM38.4273 19.3631L37.568 16.7402C37.4778 16.4732 37.3069 15.8409 37.0553 14.8479H37.0268C36.9271 15.2741 36.7657 15.9064 36.5426 16.7402L35.6975 19.3631H38.432H38.4273Z" fill="white"></path>
												<path d="M49.826 19.8408C49.826 21.0727 49.4889 22.0469 48.8148 22.7589C48.2119 23.3959 47.4618 23.7097 46.5645 23.7097C45.596 23.7097 44.9029 23.3678 44.4804 22.6839H44.4519V26.4966H42.8188V18.6886C42.8188 17.9158 42.7998 17.1195 42.7571 16.3045H44.1908L44.281 17.4521H44.3142C44.8554 16.5856 45.6815 16.1547 46.7877 16.1547C47.6517 16.1547 48.378 16.4919 48.9525 17.1664C49.5317 17.8408 49.8213 18.7308 49.8213 19.8315M48.1597 19.8924C48.1597 19.1898 47.9983 18.6043 47.6754 18.15C47.3241 17.6722 46.8494 17.4334 46.2559 17.4334C45.8524 17.4334 45.4869 17.5645 45.1593 17.8268C44.8317 18.0938 44.6181 18.4357 44.5184 18.8619C44.4662 19.0633 44.4424 19.2226 44.4424 19.3537V20.5622C44.4424 21.0867 44.6038 21.5317 44.9314 21.8924C45.259 22.2577 45.6862 22.4357 46.2085 22.4357C46.8209 22.4357 47.3004 22.2062 47.6422 21.7378C47.984 21.2694 48.1549 20.6558 48.1549 19.8877" fill="white"></path>
												<path d="M58.2668 19.8408C58.2668 21.0727 57.9298 22.0469 57.2556 22.7589C56.6527 23.3959 55.9026 23.7097 55.0053 23.7097C54.0416 23.7097 53.3437 23.3678 52.9212 22.6839H52.8927V26.4966H51.2644V18.6886C51.2644 17.9158 51.2454 17.1195 51.2026 16.3045H52.6364L52.7266 17.4521H52.7598C53.301 16.5856 54.1271 16.1547 55.2332 16.1547C56.0972 16.1547 56.8189 16.4919 57.398 17.1664C57.9772 17.8408 58.2668 18.7308 58.2668 19.8315M56.6052 19.8924C56.6052 19.1898 56.4438 18.6043 56.121 18.15C55.7697 17.6722 55.2949 17.4334 54.7015 17.4334C54.298 17.4334 53.9324 17.5645 53.6048 17.8268C53.2773 18.0938 53.0636 18.4357 52.9639 18.8619C52.9117 19.0633 52.888 19.2226 52.888 19.3537V20.5622C52.888 21.0867 53.0494 21.5317 53.377 21.8924C53.7045 22.2577 54.1271 22.4357 54.654 22.4357C55.2664 22.4357 55.7459 22.2062 56.0877 21.7378C56.4296 21.2694 56.6005 20.6558 56.6005 19.8877" fill="white"></path>
												<path d="M67.705 20.7355C67.705 21.5879 67.4059 22.2858 66.7982 22.8198C66.1336 23.4053 65.2126 23.7003 64.0257 23.7003C62.9291 23.7003 62.0508 23.4943 61.3862 23.0774L61.766 21.7378C62.4828 22.1641 63.2662 22.3795 64.1254 22.3795C64.7379 22.3795 65.2174 22.2437 65.5592 21.972C65.901 21.6957 66.0719 21.3303 66.0719 20.876C66.0719 20.4685 65.9295 20.1266 65.6494 19.8455C65.3693 19.5645 64.8993 19.3069 64.2441 19.068C62.4638 18.4123 61.5713 17.4521 61.5713 16.1875C61.5713 15.3631 61.8847 14.684 62.5066 14.1594C63.1285 13.6301 63.9593 13.3678 64.999 13.3678C65.9247 13.3678 66.6938 13.527 67.3062 13.8455L66.8979 15.157C66.3235 14.8479 65.6731 14.6933 64.9515 14.6933C64.3771 14.6933 63.9308 14.8338 63.608 15.1102C63.3374 15.3584 63.1997 15.6629 63.1997 16.0189C63.1997 16.417 63.3564 16.7448 63.6649 17.0025C63.9355 17.2413 64.4293 17.4989 65.1461 17.78C66.0197 18.1266 66.6653 18.5341 67.0784 19.0025C67.4914 19.4708 67.6955 20.0516 67.6955 20.7448" fill="white"></path>
												<path d="M73.0933 17.5178H71.2988V21.0354C71.2988 21.93 71.6169 22.375 72.253 22.375C72.5426 22.375 72.7848 22.3515 72.9746 22.3L73.0174 23.5225C72.6993 23.6396 72.272 23.7005 71.7498 23.7005C71.1042 23.7005 70.6009 23.5084 70.2401 23.1197C69.8793 22.7309 69.6942 22.0799 69.6942 21.1665V17.5178H68.6212V16.3094H69.6942V14.9839L71.2941 14.5061V16.3094H73.0886V17.5178H73.0933Z" fill="white"></path>
												<path d="M81.2018 19.8737C81.2018 20.9884 80.879 21.9018 80.2381 22.6137C79.564 23.3491 78.6667 23.7144 77.551 23.7144C76.4354 23.7144 75.6141 23.3631 74.9779 22.6559C74.337 21.9533 74.019 21.0634 74.019 19.9908C74.019 18.8666 74.3465 17.9486 75.0064 17.2367C75.6663 16.52 76.5541 16.1641 77.6697 16.1641C78.7854 16.1641 79.6114 16.5154 80.2666 17.2226C80.8932 17.9111 81.2018 18.7917 81.2018 19.8737ZM79.5117 19.9252C79.5117 19.2601 79.3646 18.684 79.075 18.2062C78.7332 17.6301 78.2442 17.3397 77.6128 17.3397C76.9814 17.3397 76.4591 17.6301 76.1173 18.2062C75.823 18.684 75.6806 19.2648 75.6806 19.9533C75.6806 20.6418 75.823 21.1945 76.1173 21.6723C76.4686 22.2484 76.9624 22.5388 77.5985 22.5388C78.2347 22.5388 78.7094 22.2437 79.0607 21.6582C79.3646 21.1711 79.5117 20.595 79.5117 19.9252Z" fill="white"></path>
												<path d="M86.5001 17.7285C86.3387 17.7004 86.1678 17.6863 85.9873 17.6863C85.4129 17.6863 84.9714 17.9018 84.6581 18.328C84.3875 18.7074 84.2498 19.1805 84.2498 19.7566V23.5552H82.6214L82.6357 18.595C82.6357 17.7613 82.6167 17.0025 82.5739 16.3139H83.9934L84.0551 17.7004H84.0979C84.2688 17.2226 84.5441 16.8385 84.9144 16.5528C85.2752 16.2952 85.6693 16.1641 86.0918 16.1641C86.2437 16.1641 86.3766 16.1734 86.5001 16.1922V17.7285Z" fill="white"></path>
												<path d="M93.7919 19.5878C93.7919 19.8782 93.7729 20.1171 93.7349 20.3185H88.845C88.864 21.0351 89.1014 21.5785 89.5524 21.9579C89.9654 22.2951 90.4971 22.4637 91.1523 22.4637C91.8739 22.4637 92.5338 22.3513 93.132 22.1218L93.3883 23.2412C92.6952 23.541 91.8739 23.6909 90.9244 23.6909C89.7898 23.6909 88.8925 23.3583 88.2468 22.6979C87.6012 22.0375 87.2736 21.1522 87.2736 20.0375C87.2736 18.9227 87.5775 18.0375 88.1804 17.3115C88.8118 16.5387 89.6711 16.1499 90.744 16.1499C91.8169 16.1499 92.605 16.5387 93.1462 17.3115C93.5782 17.9298 93.7919 18.6885 93.7919 19.5925M92.2394 19.1757C92.2489 18.6979 92.1445 18.2857 91.9214 17.9391C91.6413 17.4942 91.2045 17.2693 90.6206 17.2693C90.0889 17.2693 89.6568 17.4895 89.3245 17.9251C89.0539 18.2717 88.8925 18.6885 88.845 19.1757H92.2394Z" fill="white"></path>
											</g>
											<defs>
												<clipPath id="clip0_2441_3689">
													<rect width="103.309" height="30" fill="white" transform="translate(0.329102)"></rect>
												</clipPath>
											</defs>
										</svg>

<svg xmlns="http://www.w3.org/2000/svg" width="104" height="30" fill="none"><g clip-path="url(#a)"><path fill="#000" d="M99.755.38H4.217C2.282.38.714 1.926.714 3.835V26.17c0 1.909 1.568 3.456 3.503 3.456h95.538c1.935 0 3.504-1.547 3.504-3.456V3.836c0-1.909-1.569-3.457-3.504-3.457"/><path fill="#A7A9AC" d="M99.755 30H4.217C2.071 30 .33 28.281.33 26.164V3.836C.329 1.72 2.071 0 4.217 0h95.538c2.146 0 3.888 1.719 3.888 3.836v22.328c0 2.117-1.742 3.836-3.888 3.836M4.217.759c-1.723 0-3.119 1.377-3.119 3.077v22.328c0 1.695 1.4 3.077 3.12 3.077h95.537c1.718 0 3.119-1.381 3.119-3.077V3.836c0-1.7-1.401-3.077-3.12-3.077z"/><path fill="#fff" d="m34.724 8.53-.432 1.395h-.94l1.6-4.928h1.163l1.624 4.928h-.978l-.45-1.396zm1.43-.68-.395-1.213c-.095-.3-.175-.637-.251-.923h-.015c-.075.286-.147.628-.237.923l-.384 1.213zM39.102 6.365l.584 1.808c.104.314.175.6.247.89h.023c.067-.29.148-.571.247-.89l.58-1.808h.954l-1.377 3.56h-.897l-1.344-3.56h.988zM45.368 9.073c0 .323.014.637.057.857h-.821l-.066-.394h-.024c-.214.277-.594.473-1.068.473-.727 0-1.135-.52-1.135-1.058 0-.89.807-1.354 2.141-1.344V7.55c0-.234-.095-.622-.736-.622-.356 0-.726.107-.968.262l-.176-.586c.266-.159.736-.313 1.306-.313 1.158 0 1.49.726 1.49 1.508v1.278zm-.888-.886c-.645-.009-1.258.127-1.258.666 0 .35.228.51.518.51.37 0 .631-.234.717-.492.023-.065.023-.13.023-.196v-.492zM47.11 5.855c-.303 0-.502-.22-.502-.483 0-.276.208-.492.512-.492a.49.49 0 0 1 .513.492c0 .263-.2.483-.513.483zm-.45 4.07v-3.56h.911v3.56zM48.881 4.73h.912v5.2h-.912zM53.914 9.073c0 .323.014.637.057.857h-.822l-.066-.394h-.024c-.213.277-.593.473-1.068.473-.726 0-1.135-.52-1.135-1.058 0-.89.807-1.354 2.141-1.344V7.55c0-.234-.094-.622-.73-.622-.357 0-.727.107-.97.262l-.175-.586c.266-.159.736-.313 1.306-.313 1.153 0 1.49.726 1.49 1.508v1.278zm-.888-.886c-.646-.009-1.258.127-1.258.666 0 .35.228.51.517.51.37 0 .632-.234.717-.492.024-.065.024-.13.024-.196v-.492zM55.2 4.73h.912v2.127h.014c.223-.342.617-.572 1.159-.572.883 0 1.51.726 1.505 1.808 0 1.28-.822 1.916-1.638 1.916-.466 0-.883-.178-1.14-.613h-.014l-.043.534h-.778c.014-.244.028-.637.028-.993V4.73zm.912 3.729q.002.112.024.21a.83.83 0 0 0 .807.628c.57 0 .92-.445.92-1.17 0-.628-.303-1.139-.91-1.139a.84.84 0 0 0-.808.656 1 1 0 0 0-.028.234v.576zM59.862 4.73h.911v5.2h-.911zM62.735 8.398c.023.642.531.923 1.11.923.423 0 .717-.066 1.002-.16l.133.614c-.313.131-.74.225-1.258.225-1.173 0-1.861-.707-1.861-1.799 0-.988.608-1.915 1.766-1.915s1.557.95 1.557 1.733c0 .168-.014.3-.028.379h-2.4219999999999997m1.585-.628c.01-.328-.142-.87-.75-.87-.565 0-.802.505-.836.87zM69.68 10.01c-1.016 0-1.809-.69-1.809-1.837s.779-1.887 1.866-1.887 1.794.744 1.794 1.826c0 1.307-.935 1.893-1.847 1.893h-.009zm.028-.652c.518 0 .883-.496.883-1.222 0-.558-.251-1.2-.873-1.2s-.907.624-.907 1.214c0 .688.346 1.208.888 1.208zM72.604 7.429c0-.408-.014-.754-.028-1.059h.793l.042.534h.024c.161-.276.555-.613 1.158-.613s1.282.402 1.282 1.526V9.93h-.911V7.92c0-.51-.195-.899-.689-.899-.36 0-.612.258-.712.525a.9.9 0 0 0-.043.286V9.93h-.911V7.429zM80.072 5.452v.913h.869v.675h-.87v1.564c0 .44.12.656.466.656.161 0 .252-.01.356-.038l.014.68a2 2 0 0 1-.66.093c-.341 0-.612-.107-.783-.29-.2-.206-.29-.534-.29-1.002V7.035h-.512v-.674h.513v-.665l.897-.249zM81.952 4.73h.912v2.122h.014c.109-.168.266-.309.45-.403.186-.103.4-.159.632-.159.613 0 1.258.403 1.258 1.541V9.93h-.911V7.925c0-.51-.195-.909-.698-.909a.76.76 0 0 0-.712.506.8.8 0 0 0-.038.272V9.93h-.912v-5.2zM87.16 8.398c.024.642.532.923 1.111.923.423 0 .717-.066 1.002-.16l.133.614c-.314.131-.74.225-1.258.225-1.173 0-1.861-.707-1.861-1.799 0-.988.607-1.915 1.766-1.915 1.158 0 1.557.95 1.557 1.733 0 .168-.014.3-.029.379H87.16m1.586-.628c.01-.328-.142-.87-.75-.87-.565 0-.802.505-.836.87zM23.388 14.707c-.024-2.44 2.022-3.625 2.117-3.681-1.158-1.668-2.958-1.897-3.589-1.916-1.51-.155-2.972.89-3.741.89s-1.97-.876-3.243-.853c-1.642.029-3.175.965-4.02 2.417-1.738 2.97-.442 7.33 1.224 9.733.836 1.176 1.809 2.487 3.081 2.44 1.244-.05 1.71-.782 3.214-.782s1.928.783 3.229.755c1.338-.024 2.179-1.18 2.981-2.366a9.9 9.9 0 0 0 1.367-2.74c-.033-.01-2.597-.974-2.625-3.901M20.928 7.536c.67-.829 1.13-1.953 1.002-3.096-.968.042-2.184.66-2.881 1.47-.618.713-1.173 1.884-1.03 2.98 1.091.08 2.207-.543 2.91-1.358M41.4 23.55h-1.738l-.95-2.95h-3.304l-.907 2.95h-1.69l3.276-10.042h2.022zm-2.973-4.187-.859-2.623q-.135-.402-.513-1.892h-.028q-.15.64-.484 1.892l-.846 2.623h2.735zM49.826 19.84q0 1.85-1.011 2.919c-.603.637-1.353.95-2.25.95q-1.452 0-2.085-1.025h-.028v3.813h-1.633v-7.808q0-1.161-.062-2.384h1.434l.09 1.147h.033q.813-1.298 2.474-1.297c.864 0 1.59.337 2.165 1.011q.868 1.014.868 2.665m-1.661.061c0-.702-.162-1.288-.485-1.742a1.67 1.67 0 0 0-1.42-.717q-.604 0-1.096.394a1.83 1.83 0 0 0-.64 1.035c-.053.201-.077.36-.077.492v1.208q-.001.789.49 1.33c.327.366.754.544 1.276.544q.92.002 1.434-.698c.342-.469.513-1.082.513-1.85M58.267 19.84q0 1.85-1.011 2.919c-.603.637-1.353.95-2.25.95-.964 0-1.662-.341-2.085-1.025h-.028v3.813h-1.629v-7.808q.001-1.161-.061-2.384h1.433l.09 1.147h.034q.813-1.298 2.473-1.297 1.296 0 2.165 1.011.87 1.014.869 2.665m-1.662.061c0-.702-.161-1.288-.484-1.742a1.67 1.67 0 0 0-1.42-.717q-.605 0-1.096.394a1.83 1.83 0 0 0-.641 1.035 2 2 0 0 0-.076.492v1.208q-.002.789.489 1.33c.328.366.75.544 1.277.544q.92.002 1.434-.698c.342-.469.512-1.082.512-1.85M67.705 20.736c0 .852-.3 1.55-.907 2.084-.664.585-1.585.88-2.772.88q-1.644.001-2.64-.623l.38-1.34c.717.427 1.5.643 2.36.643q.919 0 1.433-.408.513-.414.513-1.096 0-.611-.423-1.03-.421-.422-1.405-.778-2.672-.984-2.673-2.88c0-.825.314-1.504.936-2.029q.932-.792 2.492-.791 1.389 0 2.307.477l-.408 1.312q-.863-.465-1.947-.464-.86 0-1.343.417-.407.374-.408.909 0 .597.465.984.405.356 1.481.777 1.312.52 1.932 1.223.618.702.617 1.742M73.093 17.518H71.3v3.517q0 1.341.954 1.34.436.002.722-.075l.042 1.223c-.318.117-.745.178-1.267.178q-.97 0-1.51-.581c-.36-.39-.546-1.04-.546-1.954v-3.648h-1.073v-1.209h1.073v-1.325l1.6-.478v1.803h1.795v1.209zM81.202 19.874q-.001 1.671-.964 2.74-1.012 1.101-2.687 1.1c-1.116 0-1.937-.35-2.573-1.058q-.96-1.056-.959-2.665 0-1.686.987-2.754.99-1.074 2.664-1.073c1.115 0 1.941.351 2.597 1.059q.937 1.03.935 2.65m-1.69.051c0-.665-.147-1.241-.437-1.719q-.513-.865-1.462-.866c-.632 0-1.154.29-1.496.866-.294.478-.436 1.059-.436 1.747s.142 1.242.436 1.72q.528.864 1.481.866c.637 0 1.111-.295 1.463-.88.304-.488.45-1.064.45-1.734M86.5 17.729a3 3 0 0 0-.513-.043q-.86.002-1.329.642c-.27.38-.408.852-.408 1.429v3.798H82.62l.015-4.96q0-1.25-.062-2.281h1.42l.061 1.386h.043c.17-.477.446-.861.816-1.147a2 2 0 0 1 1.178-.389c.152 0 .285.01.408.028zM93.792 19.588c0 .29-.02.53-.057.73h-4.89c.019.717.256 1.26.707 1.64q.619.506 1.6.506 1.083 0 1.98-.342l.256 1.12q-1.04.449-2.464.449c-1.134 0-2.032-.333-2.677-.993q-.971-.99-.973-2.66c0-1.115.303-2 .906-2.727.632-.772 1.491-1.161 2.564-1.161s1.861.389 2.402 1.162q.647.926.646 2.28m-1.553-.416q.016-.717-.318-1.237c-.28-.445-.717-.67-1.3-.67q-.798.001-1.296.656-.408.52-.48 1.25z"/></g><defs><clipPath id="a"><path fill="#fff" d="M.33 0h103.308v30H.33z"/></clipPath></defs></svg>
